X:1
T:The Two Brothers
M:6/8
L:1/8
K:G
 c| B2 A G2 c| B2 A G2 G| c2 c B/2- A3/2 G| A3- A2 D| G2 B dde| d3/2- c/2 B c2 d|\
 d2 B A3/2 G/2 F| G3- G2||

